X:128
T:Sellenger's Round. (p)1657.PLFD.129
T:Beginning Of The World,The. (p)1657.PLFD.129
M:6/4
L:1/4
Q:3/4=80
S:Playford, Dancing Master,3rd Ed.,1657
O:England
H:1657.
Z:Chris Partington.
K:C
G | G>AB GAB | c>de/^f/ g>fe | fga gaf | e3 c2 :|
|: c | eg2 e2c | Bd2 B>AG | Bcd e^fg | ^f3 d>e=f |
e>dc/d/ B>AG | c>de d>cB | ABG g^f3/2e/4f/4 | g6 :|
